X:7236
%8700
T:Klezmer
O:Israeli
L:1/8
M:2/4
Q:1/4=120
K:Am
|:"Am"A2 c2|e2 dc|A2 c2|"Em"B2 "Am"E2|A2 c2|e2 "Dm"dc|"Gm"gg "Dm"ff|"Am"e4|
"Dm"d2 f2-|ff "Am"ed|a2 A2-|Ac "Dm"BA|"Am"AE Ac|ee "Dm"dc|dd "Am"cB|A4:|
"Am"ae ee|"Dm"fe "Am"ee|ae ee|"Dm"fe "Am"ee|"Dm"a2 "Gm"g2|\
"Dm"f2 "Am"e2|"Dm"dd d/2e/2f/2e/2|d2 de|
"Am"cece|"Dm"d
